symbols/web/equalizer/materialsymbolsoutlined/equalizer_wght700grad200_40px.svg

<svg xmlns="http://www.w3.org/2000/svg" height="40" width="40"><path d="M5.875 34.125V19.167h7.208v14.958Zm10.542 0V5.833h7.208v28.292Zm10.5 0V14.167h7.25v19.958Z"/></svg>

<svg xmlns="http://www.w3.org/2000/svg" height="40" width="40"><path d="M5.875 34.125V19.167H13.083V34.125ZM16.417 34.125V5.833H23.625V34.125ZM26.917 34.125V14.167H34.167V34.125Z"/></svg>
